site/src/components/images/link.svg

<svg width="20" height="20" fill="none" xmlns="http://www.w3.org/2000/svg"><path d="M1.9 10c0-1.71 1.39-3.1 3.1-3.1h4V5H5c-2.76 0-5 2.24-5 5s2.24 5 5 5h4v-1.9H5c-1.71 0-3.1-1.39-3.1-3.1zM6 11h8V9H6v2zm9-6h-4v1.9h4c1.71 0 3.1 1.39 3.1 3.1 0 1.71-1.39 3.1-3.1 3.1h-4V15h4c2.76 0 5-2.24 5-5s-2.24-5-5-5z" fill="#000"/></svg>

<svg width="20" height="20" viewBox="0 0 20 20" fill="none" xmlns="http://www.w3.org/2000/svg">
<path d="M1.9 10C1.9 8.29 3.29 6.9 5 6.9H9V5H5C2.24 5 0 7.24 0 10C0 12.76 2.24 15 5 15H9V13.1H5C3.29 13.1 1.9 11.71 1.9 10ZM6 11H14V9H6V11ZM15 5H11V6.9H15C16.71 6.9 18.1 8.29 18.1 10C18.1 11.71 16.71 13.1 15 13.1H11V15H15C17.76 15 20 12.76 20 10C20 7.24 17.76 5 15 5Z" fill="black"/>
</svg>
